;FLAVOR:Marlin
;TIME:2656
;Filament used: 1.51124m
;Layer height: 0.2
;MINX:122.813
;MINY:141.728
;MINZ:0.2
;MAXX:177.183
;MAXY:158.277
;MAXZ:14
;POSTPROCESSED
;Generated with Cura_SteamEngine 4.7.1
M140 S50
M105
M190 S50
M104 S200
M105
M109 S200
M82 ;absolute extrusion mode
M201 X500.00 Y500.00 Z100.00 E5000.00 ;Setup machine max acceleration
M203 X500.00 Y500.00 Z10.00 E50.00 ;Setup machine max feedrate
M204 P500.00 R1000.00 T500.00 ;Setup Print/Retract/Travel acceleration
M205 X8.00 Y8.00 Z0.40 E5.00 ;Setup Jerk
M220 S100 ;Reset Feedrate
M221 S100 ;Reset Flowrate

G28 ;Home

G92 E0 ;Reset Extruder
G1 Z2.0 F3000 ;Move Z Axis up
G1 X10.1 Y20 Z0.28 F5000.0 ;Move to start position
G1 X10.1 Y200.0 Z0.28 F1500.0 E15 ;Draw the first line
G1 X10.4 Y200.0 Z0.28 F5000.0 ;Move to side a little
G1 X10.4 Y20 Z0.28 F1500.0 E30 ;Draw the second line
G92 E0 ;Reset Extruder
G1 Z2.0 F3000 ;Move Z Axis up

G92 E0
G92 E0
G1 F2700 E-5
;LAYER_COUNT:70
;LAYER:0
M107
G0 F6000 X167.778 Y146.215 Z0.2
;TYPE:SKIRT
G1 F2700 E0
G1 F1200 X171.635 Y146.194 E0.12829
G1 X172.185 Y146.225 E0.14661
G1 X172.302 Y146.246 E0.15056
G1 X172.332 Y146.254 E0.15159
G1 X172.501 Y146.291 E0.15735
G1 X172.673 Y146.357 E0.16348
G1 X172.68 Y146.362 E0.16376
G1 X172.717 Y153.39 E0.39752
G1 X172.608 Y153.456 E0.40176
G1 X172.499 Y153.498 E0.40564
G1 X172.358 Y153.534 E0.41048
G1 X172.209 Y153.56 E0.41551
G1 X171.689 Y153.594 E0.43284
G1 X167.815 Y153.613 E0.5617
G1 X167.809 Y153.539 E0.56416
G1 X167.689 Y153.002 E0.58247
G1 X167.491 Y152.487 E0.60082
G1 X167.222 Y152.007 E0.61912
G1 X166.715 Y151.391 E0.64565
G1 X166.123 Y150.809 E0.67327
G1 X165.703 Y150.452 E0.6916
G1 X165.236 Y150.16 E0.70992
G1 X164.873 Y150 E0.72311
G1 X165.015 Y149.947 E0.72815
G1 X165.497 Y149.68 E0.74648
G1 X166.108 Y149.184 E0.77266
G1 X166.698 Y148.594 E0.80041
G1 X167.058 Y148.177 E0.81873
G1 X167.355 Y147.713 E0.83705
G1 X167.581 Y147.21 E0.85539
G1 X167.732 Y146.68 E0.87372
G1 X167.778 Y146.215 E0.88926
G0 F6000 X167.361 Y146.488
G1 F1200 X167.411 Y145.877 E0.90965
G1 X167.41 Y145.817 E0.91165
G1 X171.64 Y145.794 E1.05234
G1 X172.232 Y145.827 E1.07206
G1 X172.395 Y145.857 E1.07758
G1 X172.614 Y145.906 E1.08504
G1 X172.86 Y146 E1.0938
G1 X173.066 Y146.141 E1.1021
G1 X173.08 Y146.213 E1.10454
G1 X173.118 Y153.617 E1.3508
G1 X172.787 Y153.815 E1.36363
G1 X172.623 Y153.879 E1.36949
G1 X172.437 Y153.926 E1.37587
G1 X172.256 Y153.958 E1.38198
G1 X171.7 Y153.994 E1.40051
G1 X167.445 Y154.015 E1.54204
G1 X167.409 Y153.571 E1.55685
G1 X167.289 Y153.064 E1.57418
G1 X167.092 Y152.581 E1.59153
G1 X166.824 Y152.134 E1.60886
G1 X166.435 Y151.676 E1.62885
G1 X165.843 Y151.094 E1.65646
G1 X165.444 Y150.759 E1.67379
G1 X164.999 Y150.488 E1.69112
G1 X164.518 Y150.288 E1.70845
G1 X164.011 Y150.164 E1.72581
G1 X163.43 Y150.119 E1.74519
G1 X160.969 Y150.14 E1.82704
G1 X154.572 Y150.179 E2.03981
G1 X153.575 Y150.198 E2.07298
G1 X144.948 Y150.275 E2.35993
G1 X144.711 Y150.275 E2.36781
G1 X144.452 Y150.285 E2.37643
G1 X143.625 Y150.348 E2.40402
G1 X139.341 Y150.396 E2.54651
G1 X138.101 Y150.391 E2.58775
G1 X137.582 Y150.429 E2.60506
G1 X137.074 Y150.546 E2.6224
G1 X136.59 Y150.739 E2.63973
G1 X136.362 Y150.873 E2.64853
G1 X136.282 Y150.881 E2.6512
G1 X135.777 Y151.01 E2.66854
G1 X135.297 Y151.214 E2.68588
G1 X134.854 Y151.489 E2.70323
G1 X134.43 Y151.858 E2.72192
G1 X134.316 Y151.975 E2.72735
G1 X133.982 Y152.375 E2.74469
G1 X133.713 Y152.822 E2.76204
G1 X133.515 Y153.304 E2.77937
G1 X133.394 Y153.811 E2.79671
G1 X133.365 Y154.187 E2.80925
G1 X128.268 Y154.212 E2.97878
G1 X127.583 Y154.154 E3.00164
G1 X127.436 Y154.12 E3.00666
G1 X127.317 Y154.082 E3.01082
G1 X127.171 Y154.013 E3.01619
G1 X126.92 Y153.839 E3.02634
G1 X126.881 Y146.372 E3.2747
G1 X126.901 Y146.357 E3.27553
G1 X127.104 Y146.236 E3.28339
G1 X127.155 Y146.213 E3.28525
G1 X127.668 Y146.067 E3.30299
G1 X128.24 Y146.012 E3.32211
G1 X132.515 Y145.991 E3.4643
G1 X132.556 Y146.466 E3.48015
G1 X132.679 Y146.972 E3.49747
G1 X132.878 Y147.454 E3.51482
G1 X133.149 Y147.899 E3.53215
G1 X133.507 Y148.321 E3.55055
G1 X134.089 Y148.903 E3.57793
G1 X134.485 Y149.242 E3.59527
G1 X134.927 Y149.517 E3.61258
G1 X135.407 Y149.721 E3.62993
G1 X135.912 Y149.849 E3.64725
G1 X136.493 Y149.899 E3.66665
G1 X158.086 Y149.899 E4.38484
G1 X161.906 Y149.893 E4.51189
G1 X163.412 Y149.897 E4.56198
G1 X163.932 Y149.858 E4.57932
G1 X164.439 Y149.741 E4.59663
G1 X164.923 Y149.547 E4.61397
G1 X165.372 Y149.282 E4.63131
G1 X165.825 Y148.901 E4.651
G1 X166.415 Y148.311 E4.67875
G1 X166.754 Y147.915 E4.69609
G1 X167.029 Y147.473 E4.7134
G1 X167.233 Y146.993 E4.73075
G1 X167.361 Y146.488 E4.74808
G0 F6000 X166.985 Y146.302
G1 F1200 X167.011 Y145.881 E4.76211
G1 X167.007 Y145.419 E4.77747
G1 X171.66 Y145.393 E4.93224
G1 X172.28 Y145.428 E4.95289
G1 X172.473 Y145.464 E4.95942
G1 X172.504 Y145.472 E4.96049
G1 X172.727 Y145.521 E4.96808
G1 X173.034 Y145.638 E4.97901
G1 X173.059 Y145.651 E4.97994
G1 X173.38 Y145.872 E4.99291
G1 X173.436 Y145.948 E4.99605
G1 X173.479 Y146.173 E5.00366
G1 X173.518 Y153.727 E5.25491
G1 X173.5 Y153.774 E5.25659
G1 X173.399 Y153.914 E5.26233
G1 X172.959 Y154.178 E5.2794
G1 X172.747 Y154.26 E5.28696
G1 X172.528 Y154.316 E5.29448
G1 X172.303 Y154.355 E5.30207
G1 X171.711 Y154.393 E5.3218
G1 X167.052 Y154.417 E5.47676
G1 X167.051 Y154.091 E5.48761
G1 X167.009 Y153.604 E5.50386
G1 X166.889 Y153.129 E5.52016
G1 X166.693 Y152.681 E5.53642
G1 X166.427 Y152.27 E5.55271
G1 X166.154 Y151.962 E5.56639
G1 X165.562 Y151.38 E5.59401
G1 X165.186 Y151.066 E5.6103
G1 X164.764 Y150.818 E5.62658
G1 X164.308 Y150.642 E5.64284
G1 X163.829 Y150.542 E5.65911
G1 X163.433 Y150.519 E5.6723
G1 X160.972 Y150.54 E5.75416
G1 X154.58 Y150.579 E5.96676
G1 X153.578 Y150.598 E6.0001
G1 X144.951 Y150.675 E6.28704
G1 X144.711 Y150.675 E6.29503
G1 X144.483 Y150.684 E6.30261
G1 X143.645 Y150.748 E6.33057
G1 X139.345 Y150.796 E6.4736
G1 X138.1 Y150.791 E6.515
G1 X137.612 Y150.829 E6.53128
G1 X137.136 Y150.946 E6.54759
G1 X136.686 Y151.139 E6.56387
G1 X136.49 Y151.264 E6.5716
G1 X136.321 Y151.281 E6.57725
G1 X135.848 Y151.408 E6.59354
G1 X135.403 Y151.611 E6.60981
G1 X134.996 Y151.884 E6.62611
G1 X134.716 Y152.137 E6.63866
G1 X134.602 Y152.254 E6.6441
G1 X134.29 Y152.632 E6.6604
G1 X134.044 Y153.055 E6.67667
G1 X133.87 Y153.512 E6.69294
G1 X133.772 Y153.992 E6.70923
G1 X133.751 Y154.362 E6.72156
G1 X133.752 Y154.585 E6.72897
G1 X128.247 Y154.612 E6.91207
G1 X127.527 Y154.552 E6.9361
G1 X127.327 Y154.505 E6.94294
G1 X127.166 Y154.454 E6.94855
G1 X126.97 Y154.361 E6.95577
G1 X126.562 Y154.078 E6.97229
G1 X126.527 Y154.027 E6.97434
G1 X126.52 Y153.963 E6.97648
G1 X126.481 Y146.262 E7.23262
G1 X126.517 Y146.168 E7.23597
G1 X126.588 Y146.094 E7.23938
G1 X126.674 Y146.027 E7.24301
G1 X126.925 Y145.878 E7.25272
G1 X127.016 Y145.836 E7.25605
G1 X127.591 Y145.673 E7.27593
G1 X128.222 Y145.612 E7.29701
G1 X132.908 Y145.589 E7.45287
G1 X132.911 Y145.943 E7.46465
G1 X132.955 Y146.431 E7.48094
G1 X133.078 Y146.905 E7.49723
G1 X133.276 Y147.352 E7.51349
G1 X133.545 Y147.761 E7.52977
G1 X133.79 Y148.038 E7.54207
G1 X134.372 Y148.62 E7.56945
G1 X134.745 Y148.937 E7.58573
G1 X135.165 Y149.189 E7.60202
G1 X135.62 Y149.369 E7.6183
G1 X136.098 Y149.473 E7.63457
G1 X136.493 Y149.499 E7.64773
G1 X158.086 Y149.499 E8.36592
G1 X161.907 Y149.493 E8.493
G1 X163.413 Y149.497 E8.54309
G1 X163.901 Y149.458 E8.55938
G1 X164.376 Y149.341 E8.57565
G1 X164.826 Y149.148 E8.59193
G1 X165.238 Y148.884 E8.60821
G1 X165.542 Y148.618 E8.62164
G1 X166.132 Y148.028 E8.6494
G1 X166.449 Y147.655 E8.66568
G1 X166.701 Y147.235 E8.68197
G1 X166.881 Y146.78 E8.69824
G1 X166.985 Y146.302 E8.71451
G0 F6000 X166.602 Y146.124
G1 F1200 X166.611 Y145.884 E8.7225
G1 X166.604 Y145.021 E8.75121
G1 X171.664 Y144.993 E8.9195
G1 X172.327 Y145.031 E8.94159
G1 X172.555 Y145.073 E8.9493
G1 X172.59 Y145.082 E8.9505
G1 X172.846 Y145.138 E8.95922
G1 X173.199 Y145.272 E8.97178
G1 X173.271 Y145.311 E8.9745
G1 X173.658 Y145.577 E8.99012
G1 X173.812 Y145.784 E8.9987
G1 X173.879 Y146.134 E9.01055
G1 X173.918 Y153.769 E9.2645
G1 X173.914 Y153.812 E9.26594
G1 X173.857 Y153.963 E9.2713
G1 X173.695 Y154.187 E9.2805
G1 X173.638 Y154.238 E9.28304
G1 X173.14 Y154.536 E9.30234
G1 X172.871 Y154.641 E9.31195
G1 X172.602 Y154.709 E9.32118
G1 X172.351 Y154.753 E9.32965
G1 X171.723 Y154.793 E9.35058
G1 X166.653 Y154.819 E9.51921
G1 X166.651 Y154.093 E9.54336
G1 X166.61 Y153.639 E9.55852
G1 X166.49 Y153.199 E9.57369
G1 X166.295 Y152.788 E9.58882
G1 X166.031 Y152.416 E9.60399
G1 X165.874 Y152.247 E9.61167
G1 X165.282 Y151.665 E9.63928
G1 X164.93 Y151.375 E9.65445
G1 X164.533 Y151.151 E9.66961
G1 X164.103 Y151 E9.68477
G1 X163.437 Y150.919 E9.70708
G1 X160.976 Y150.94 E9.78894
G1 X154.588 Y150.978 E10.00141
G1 X153.555 Y150.998 E10.03577
G1 X144.955 Y151.075 E10.32182
G1 X144.711 Y151.075 E10.32993
G1 X144.513 Y151.083 E10.33653
G1 X143.664 Y151.148 E10.36485
G1 X139.347 Y151.196 E10.50844
G1 X138.098 Y151.191 E10.54998
G1 X137.644 Y151.229 E10.56513
G1 X137.204 Y151.346 E10.58028
G1 X136.79 Y151.538 E10.59546
G1 X136.628 Y151.651 E10.60202
G1 X136.363 Y151.68 E10.61089
G1 X135.925 Y151.807 E10.62606
G1 X135.516 Y152.008 E10.64122
G1 X135.003 Y152.417 E10.66304
G1 X134.889 Y152.534 E10.66847
G1 X134.601 Y152.886 E10.6836
G1 X134.379 Y153.284 E10.69876
G1 X134.229 Y153.715 E10.71393
G1 X134.151 Y154.36 E10.73554
G1 X134.154 Y154.983 E10.75626
G1 X128.238 Y155.012 E10.95303
G1 X127.458 Y154.947 E10.97907
G1 X127.223 Y154.892 E10.98709
G1 X127.02 Y154.827 E10.99418
G1 X126.768 Y154.708 E11.00345
G1 X126.301 Y154.385 E11.02234
G1 X126.255 Y154.337 E11.02455
G1 X126.156 Y154.192 E11.03039
G1 X126.138 Y154.151 E11.03188
G1 X126.12 Y153.989 E11.0373
G1 X126.08 Y146.188 E11.29677
G1 X126.162 Y145.974 E11.30439
G1 X126.192 Y145.929 E11.30619
G1 X126.324 Y145.792 E11.31251
G1 X126.445 Y145.698 E11.31761
G1 X126.736 Y145.525 E11.32887
G1 X126.88 Y145.459 E11.33414
G1 X127.514 Y145.279 E11.35606
G1 X128.204 Y145.212 E11.37912
G1 X133.304 Y145.187 E11.54875
G1 X133.311 Y145.94 E11.57379
G1 X133.355 Y146.393 E11.58893
G1 X133.477 Y146.832 E11.60408
G1 X133.674 Y147.243 E11.61924
G1 X134.073 Y147.755 E11.64083
G1 X134.655 Y148.337 E11.66821
G1 X135.004 Y148.63 E11.68336
G1 X135.399 Y148.857 E11.69852
G1 X135.827 Y149.012 E11.71366
G1 X136.493 Y149.099 E11.736
G1 X158.085 Y149.099 E12.45415
G1 X161.907 Y149.093 E12.58127
G1 X163.414 Y149.097 E12.63139
G1 X163.868 Y149.058 E12.64655
G1 X164.308 Y148.941 E12.66169
G1 X164.721 Y148.748 E12.67685
G1 X165.259 Y148.335 E12.69941
G1 X165.849 Y147.745 E12.72716
G1 X166.142 Y147.396 E12.74232
G1 X166.369 Y147.001 E12.75747
G1 X166.524 Y146.573 E12.77261
G1 X166.602 Y146.124 E12.78777
G0 F6000 X166.211 Y145.888
G1 F1200 X166.2 Y144.623 E12.82985
G1 X171.668 Y144.593 E13.01172
G1 X172.375 Y144.633 E13.03527
G1 X172.644 Y144.683 E13.04437
G1 X172.675 Y144.691 E13.04543
G1 X172.962 Y144.754 E13.05521
G1 X173.359 Y144.905 E13.06933
G1 X173.481 Y144.97 E13.07393
G1 X173.907 Y145.263 E13.09113
G1 X173.956 Y145.306 E13.0933
G1 X174.188 Y145.617 E13.1062
G1 X174.279 Y146.094 E13.12235
G1 X174.318 Y153.792 E13.37839
G1 X174.307 Y153.902 E13.38207
G1 X174.212 Y154.156 E13.39109
G1 X173.996 Y154.454 E13.40333
G1 X173.876 Y154.562 E13.4087
G1 X173.315 Y154.898 E13.43045
G1 X173.037 Y155.006 E13.44037
G1 X172.983 Y155.025 E13.44227
G1 X172.693 Y155.099 E13.45223
G1 X172.389 Y155.152 E13.46249
G1 X171.751 Y155.193 E13.48375
G1 X166.255 Y155.221 E13.66655
G1 X166.251 Y154.094 E13.70404
G1 X166.21 Y153.677 E13.71797
G1 X166.09 Y153.275 E13.73193
G1 X165.897 Y152.904 E13.74584
G1 X165.593 Y152.532 E13.76182
G1 X165.001 Y151.95 E13.78943
G1 X164.676 Y151.686 E13.80335
G1 X164.306 Y151.489 E13.8173
G1 X163.906 Y151.365 E13.83123
G1 X163.44 Y151.319 E13.8468
G1 X160.979 Y151.34 E13.92866
G1 X154.595 Y151.378 E14.14099
G1 X153.562 Y151.398 E14.17536
G1 X144.958 Y151.475 E14.46154
G1 X144.711 Y151.475 E14.46975
G1 X144.544 Y151.481 E14.47531
G1 X143.669 Y151.548 E14.5045
G1 X139.351 Y151.596 E14.64813
G1 X138.097 Y151.591 E14.68983
G1 X137.679 Y151.629 E14.70379
G1 X137.277 Y151.746 E14.71772
G1 X136.904 Y151.937 E14.73166
G1 X136.777 Y152.036 E14.73701
G1 X136.407 Y152.079 E14.7494
G1 X136.007 Y152.205 E14.76335
G1 X135.639 Y152.405 E14.77728
G1 X135.289 Y152.696 E14.79242
G1 X135.175 Y152.813 E14.79785
G1 X134.913 Y153.139 E14.81176
G1 X134.717 Y153.51 E14.82572
G1 X134.595 Y153.911 E14.83966
G1 X134.551 Y154.358 E14.8546
G1 X134.556 Y155.381 E14.88863
G1 X128.218 Y155.413 E15.09943
G1 X127.402 Y155.344 E15.12667
G1 X127.114 Y155.277 E15.1365
G1 X126.876 Y155.201 E15.14481
G1 X126.563 Y155.053 E15.15633
G1 X126.042 Y154.692 E15.17741
G1 X125.944 Y154.591 E15.18209
G1 X125.809 Y154.393 E15.19006
G1 X125.746 Y154.251 E15.19523
G1 X125.72 Y154.015 E15.20312
G1 X125.68 Y146.152 E15.46465
G1 X125.686 Y146.101 E15.46636
G1 X125.806 Y145.786 E15.47757
G1 X125.878 Y145.678 E15.48189
G1 X126.053 Y145.497 E15.49026
G1 X126.224 Y145.364 E15.49747
G1 X126.55 Y145.17 E15.51009
G1 X126.739 Y145.083 E15.51701
G1 X127.439 Y144.884 E15.54121
G1 X128.185 Y144.813 E15.56613
G1 X133.702 Y144.785 E15.74963
G1 X133.701 Y144.791 E15.74984
G1 X133.711 Y145.936 E15.78792
G1 X133.755 Y146.353 E15.80187
G1 X133.876 Y146.754 E15.8158
G1 X134.072 Y147.125 E15.82975
G1 X134.355 Y147.473 E15.84467
G1 X134.937 Y148.055 E15.87205
G1 X135.261 Y148.321 E15.88599
G1 X135.628 Y148.522 E15.89991
G1 X136.028 Y148.649 E15.91387
G1 X136.493 Y148.699 E15.92942
G1 X158.084 Y148.699 E16.64754
G1 X161.907 Y148.693 E16.77469
G1 X163.415 Y148.697 E16.82485
G1 X163.832 Y148.658 E16.83878
G1 X164.235 Y148.541 E16.85274
G1 X164.608 Y148.35 E16.86668
G1 X164.977 Y148.053 E16.88243
G1 X165.567 Y147.463 E16.91018
G1 X165.833 Y147.139 E16.92413
G1 X166.034 Y146.772 E16.93804
G1 X166.161 Y146.372 E16.952
G1 X166.211 Y145.888 E16.96818
G0 F6000 X165.79 Y146.181
G1 F1200 X165.811 Y145.891 E16.97786
G1 X165.799 Y144.509 E17.02382
G1 X165.766 Y144.225 E17.03333
G1 X171.688 Y144.193 E17.2303
G1 X172.422 Y144.235 E17.25475
G1 X172.72 Y144.29 E17.26483
G1 X173.075 Y144.369 E17.27693
G1 X173.524 Y144.54 E17.29291
G1 X173.694 Y144.631 E17.29932
G1 X174.151 Y144.944 E17.31775
G1 X174.249 Y145.032 E17.32213
G1 X174.556 Y145.442 E17.33916
G1 X174.566 Y145.463 E17.33994
G1 X174.679 Y146.055 E17.35998
G1 X174.718 Y153.814 E17.61805
G1 X174.699 Y153.996 E17.62414
G1 X174.568 Y154.345 E17.63654
G1 X174.294 Y154.724 E17.65209
G1 X174.113 Y154.885 E17.66015
G1 X173.491 Y155.258 E17.68427
G1 X173.166 Y155.385 E17.69587
G1 X173.099 Y155.409 E17.69824
G1 X172.784 Y155.489 E17.70905
G1 X172.436 Y155.55 E17.7208
G1 X171.762 Y155.593 E17.74327
G1 X165.833 Y155.623 E17.94047
G1 X165.835 Y155.616 E17.94071
G1 X165.855 Y155.345 E17.94975
G1 X165.851 Y154.095 E17.99132
G1 X165.81 Y153.719 E18.0039
G1 X165.691 Y153.359 E18.01651
G1 X165.499 Y153.032 E18.02913
G1 X165.313 Y152.817 E18.03858
G1 X164.721 Y152.235 E18.06619
G1 X164.424 Y152 E18.07879
G1 X164.085 Y151.831 E18.09139
G1 X163.718 Y151.738 E18.10398
G1 X163.444 Y151.719 E18.11312
G1 X160.983 Y151.74 E18.19497
G1 X154.603 Y151.778 E18.40718
G1 X153.57 Y151.798 E18.44154
G1 X144.962 Y151.875 E18.72785
G1 X144.711 Y151.875 E18.7362
G1 X144.574 Y151.88 E18.74076
G1 X143.688 Y151.948 E18.77032
G1 X139.353 Y151.996 E18.91451
G1 X138.095 Y151.991 E18.95635
G1 X137.718 Y152.029 E18.96895
G1 X137.357 Y152.146 E18.98157
G1 X137.029 Y152.335 E18.99417
G1 X136.925 Y152.429 E18.99883
G1 X136.831 Y152.431 E19.00196
G1 X136.455 Y152.478 E19.01456
G1 X136.097 Y152.603 E19.02717
G1 X135.773 Y152.8 E19.03978
G1 X135.576 Y152.975 E19.04855
G1 X135.462 Y153.092 E19.05398
G1 X135.227 Y153.39 E19.0666
G1 X135.06 Y153.73 E19.0792
G1 X134.969 Y154.097 E19.09178
G1 X134.951 Y154.357 E19.10045
G1 X134.956 Y155.405 E19.1353
G1 X134.998 Y155.778 E19.14779
G1 X128.208 Y155.813 E19.37363
G1 X127.333 Y155.739 E19.40283
G1 X127.013 Y155.664 E19.41376
G1 X126.727 Y155.573 E19.42375
G1 X126.363 Y155.401 E19.43714
G1 X125.784 Y155 E19.46056
G1 X125.632 Y154.844 E19.46781
G1 X125.457 Y154.587 E19.47815
